X: 25471
T: Marching, The
R: waltz
M: 3/4
K: Dmajor
a>g|:f>e fa ge|d2 A2 d>c|B3 B df|e4 ag|
f>e fa ge|d2 A2 d>c|B>G Bd ce|1 d4 a>g:|2 d4 f>g||
|:a>A ag fg|e2 A2 e>f|g2 ge ce|
[1 a4 f>g|a>A ag fg|e2 A2 d>c|B>G Bd ce|d4 f>g:|
[2 A4 d>c|B>G Bd ce|d>c de fd|B>G Bd ce|d4 a>g||
|:f4 e>f|d4 c>d|B3 c df|e4 a>g|
f4 e>f|d4 d>c|B>G Bd ce|1 d4 a>g:|2 d4 f>g||
a>A ag fa|g>f ge cA|g>f ge ce|a4 f>g|
a>A ag fa|gf ge cA|B>G Bd ce|A4 d>c|
B>G Bd ce|d>c de fd|B>G Bd ca|d4||

